public/svg/profiles/website.svg

<?xml version="1.0" encoding="UTF-8" standalone="no"?>
<svg width="50px" height="50px" viewBox="0 0 50 50" version="1.1" xmlns="http://www.w3.org/2000/svg" xmlns:xlink="http://www.w3.org/1999/xlink">
    <defs></defs>
    <g stroke="none" stroke-width="1" fill="none" fill-rule="evenodd">
        <g>
            <g>
                <path d="M0.920512821,25 C0.920512821,11.1934211 11.8435897,0 25.3205128,0 C38.7974359,0 49.7217949,11.1934211 49.7217949,25 C49.7217949,38.8065789 38.7987179,50 25.3205128,50 C11.8461538,50 0.920512821,38.8065789 0.920512821,25 L0.920512821,25 Z" id="Shape" fill="#FF005C"></path>
                <path d="M25.2115385,29.8618421 L21.3358974,33.8355263 C20.4153846,34.7828947 18.8102564,34.7828947 17.8897436,33.8355263 L17.0282051,32.9539474 C16.5705776,32.4859848 16.3139708,31.8498482 16.3153846,31.1868421 C16.3153846,30.5184211 16.5679487,29.8907895 17.0282051,29.4184211 L22.625641,23.6723684 C23.574359,22.6986842 25.1217949,22.6986842 26.0705128,23.6723684 L26.9294872,24.5578947 C27.4053017,25.0465941 28.1770365,25.0468886 28.6532051,24.5585526 C29.1293737,24.0702166 29.1296607,23.278173 28.6538462,22.7894737 L27.7948718,21.9052632 C25.8908541,19.953802 22.8065818,19.953802 20.9025641,21.9052632 L15.3051282,27.65 C14.3889056,28.5852602 13.8755172,29.8579668 13.8794872,31.1842105 C13.8759752,32.5111343 14.3892412,33.7844846 15.3051282,34.7210526 L16.1666667,35.6026316 C17.0781603,36.5437583 18.3185994,37.0715639 19.6115385,37.0684211 C20.9141026,37.0684211 22.1371795,36.5486842 23.0576923,35.6039474 L26.9333333,31.625 C27.2688364,31.3156604 27.4103143,30.841365 27.3010427,30.3922786 C27.1917712,29.9431922 26.849641,29.5928429 26.4118263,29.4817003 C25.9740117,29.3705578 25.5121953,29.5168191 25.2115385,29.8618421 L25.2115385,29.8618421 Z M35.9769231,15.2763158 L35.1153846,14.3921053 C33.2116619,12.4423955 30.1293637,12.4423955 28.225641,14.3921053 L24.35,18.3697368 C24.0419729,18.6853998 23.9214303,19.1457394 24.0337793,19.5773501 C24.1461284,20.0089608 24.4743007,20.3462708 24.8946768,20.4622185 C25.3150529,20.5781663 25.7637678,20.4551367 26.0717949,20.1394737 L29.9474359,16.1631579 C30.8961538,15.1894737 32.4423077,15.1894737 33.3923077,16.1631579 L34.2512821,17.0447368 C35.2,18.0210526 35.2,19.6078947 34.2512821,20.5842105 L28.6538462,26.3276316 C28.1948718,26.8013158 27.5833333,27.0605263 26.9333333,27.0605263 C26.2833333,27.0605263 25.6717949,26.8 25.2128205,26.3276316 C24.7374702,25.8403855 23.9674666,25.8401929 23.491885,26.3272012 C23.0163033,26.8142095 23.0147715,27.6044747 23.4884615,28.0934211 C24.3992406,29.0366023 25.640763,29.5651464 26.9346154,29.5605263 C28.2358974,29.5605263 29.4602564,29.0394737 30.3794872,28.0947368 L35.9782051,22.3513158 C37.8780698,20.3970441 37.8780698,17.2332191 35.9782051,15.2789474 L35.9769231,15.2763158 Z" id="Shape" fill="#FFFFFF"></path>
            </g>
        </g>
    </g>
</svg>

<svg width="50" height="50" viewBox="0 0 50 50" xmlns="http://www.w3.org/2000/svg"><g fill="none" fill-rule="evenodd"><path d="M.92 25c0-13.807 10.924-25 24.4-25 13.477 0 24.402 11.193 24.402 25S38.8 50 25.322 50C11.845 50 .92 38.807.92 25z" fill="#FF005C"/><path d="M25.212 29.862l-3.876 3.974c-.92.947-2.526.947-3.446 0l-.862-.882c-.457-.468-.714-1.104-.713-1.767 0-.67.253-1.296.713-1.77l5.598-5.745c.948-.973 2.496-.973 3.445 0l.86.886c.475.49 1.247.49 1.723 0 .476-.488.477-1.28 0-1.77l-.858-.883c-1.904-1.95-4.988-1.95-6.892 0l-5.598 5.745c-.916.935-1.43 2.208-1.426 3.534-.004 1.327.51 2.6 1.425 3.537l.862.883c.91.94 2.152 1.47 3.445 1.465 1.302 0 2.525-.52 3.446-1.464l3.875-3.98c.336-.308.477-.783.368-1.232-.108-.45-.45-.8-.888-.91-.438-.11-.9.035-1.2.38zm10.765-14.586l-.862-.884c-1.903-1.95-4.986-1.95-6.89 0L24.35 18.37c-.308.315-.43.776-.316 1.207.112.432.44.77.86.885.42.116.87-.007 1.178-.323l3.875-3.977c.95-.974 2.495-.974 3.445 0l.86.882c.948.976.948 2.563 0 3.54l-5.598 5.743c-.46.473-1.07.733-1.72.733-.65 0-1.262-.26-1.72-.732-.477-.488-1.247-.488-1.722 0-.476.486-.477 1.276-.004 1.765.91.944 2.153 1.472 3.447 1.468 1.3 0 2.525-.52 3.444-1.465l5.598-5.744c1.9-1.953 1.9-5.117 0-7.07v-.004z" fill="#FFF"/></g></svg>
